X:1
T:The Lord is My Shepherd
M:C
L:1/8
Q:80
C:
S:Hymn
K:HP
[| A2|
{g}f4g{a}e{ag}a4g{a}e|
{Gdc}d4{e}c2{Gdc}d4f2|  !
{gfg}f2e2{g}e2{gf}g4{a}g2|
{ag}a6a4f2|
{g}f2g2{a}f2{gef}e4f2|  !
{gf}g2a2g2{afg}f4{e}f2|
{g}e2g2{a}B2d4{e}c2|
{Gdc}d6d4|]  !

